X:1
T:Zephyr, LM
T:William Batchelder Bradbury, 1844
T:Zephyr, LM
T:Public Domain
C:William Batchelder Bradbury, 1844
Z:Public Domain
%%score 1 ( 2 3 )
L:1/8
M:4/4
K:C
V:1 treble 
V:2 bass 
V:3 bass 
V:1
 [EG]4 [EG]2 [EG]2 | [FA]4 [Ac]2 [FA]2 | [EG]4 [CE]4 | [B,D]8 | [DF]4 [CE]2 [B,D]2 | %5
 [CE]2 [EG]4 [DF]2 | [CE]4 [B,D]4 | [CE]8 | [EG]4 [Ec]2 [EG]2 | [FA]6 [^FA]2 | [^Fd]4 [Ac]4 | %11
 [GB]8 | G4 [FA]2 [FB]2 | [Ec]4 [Ge]4 | [Fd]4 [Ec]2 [DB]2 | [Ec]8 |] %16
V:2
 [C,C]4 [C,C]2 [C,C]2 | [C,C]4 [C,C]4 | [C,C]4 [E,G,]4 | G,8 | [G,,G,]4 [G,,G,]2 [G,,G,]2 | %5
 [C,G,]6 [F,A,]2 | G,4 [G,,G,]4 | [C,G,]8 | [C,C]4 [C,G,]2 [C,C]2 | [F,C]6 [D,D]2 | %10
 [D,A,]4 [^F,D]4 | [G,D]8 | [E,C]4 [F,C]2 [D,G,]2 | [C,G,]4 [C,C]4 | [F,A,]4 G,4 | [C,G,]8 |] %16
V:3
 x8 | x8 | x8 | G,8 | x8 | x8 | x8 | x8 | x8 | x8 | x8 | x8 | x8 | x8 | x4 G,4 | x8 |] %16

